!!!COA:	Josquin des Prez
!!!CDT:	~1450-1521/08/27
!!!OTL@@LAT: Ave nobilissima creatura
!!!OTL2@@LAT: Tibi domina gloriosa
!!!AGN:	Motet
!!!SCT:	NJE 23.11
!!!SCA:	New Josquin Edition 23.11
!!!voices:	6
**kern	**kern	**kern	**kern	**kern	**kern
*staff6	*staff5	*staff4	*staff3	*staff2	*staff1
*Ivox	*Ivox	*Ivox	*Ivox	*Ivox	*Ivox
*I"Bassus2	*I"Bassus1	*I"Tenor	*I"Altus2	*I"Altus1	*I"Superius
*I'B2	*I'B1	*I'T	*I'A2	*I'A1	*I'S
*>[A,B]	*>[A,B]	*>[A,B]	*>[A,B]	*>[A,B]	*>[A,B]
*>Part1[A]	*>Part1[A]	*>Part1[A]	*>Part1[A]	*>Part1[A]	*>Part1[A]
*>Part2[B]	*>Part2[B]	*>Part2[B]	*>Part2[B]	*>Part2[B]	*>Part2[B]
*>A	*>A	*>A	*>A	*>A	*>A
*clefF4	*clefF4	*clefGv2	*clefGv2	*clefGv2	*clefG2
*k[b-]	*k[b-]	*k[b-]	*k[b-]	*k[b-]	*k[b-]
*M2/1	*M2/1	*M2/1	*M2/1	*M2/1	*M2/1
*met(C|)	*met(C|)	*met(O2)	*met(C|)	*met(C|)	*met(C|)
!!primary-mensuration: met(C|)
=1-	=1-	=1-	=1-	=1-	=1-
0r	0r	0r	1.A	0r	0a
.	.	.	[2d\	.	.
=2	=2	=2.	=2	=2	=2
0r	0r	0r	2d\]	0r	0a
.	.	.	4c\	.	.
.	.	.	4B-\	.	.
.	.	.	2c\	.	.
.	.	.	2d\	.	.
=3	=3	=3.	=3	=3	=3
0r	0r	0r	1G	0d	1b-
.	.	.	2F/	.	2a/
.	.	.	[2G/	.	[2b-\
=4	=4	=4	=4	=4	=4
0r	0r	0r	2G/]	0d	2b-\]
.	.	.	4F/	.	4a/
.	.	.	4E/	.	4g/
.	.	.	1D	.	1f
=5	=5	=5.	=5	=5	=5
0r	0r	0r	2C/	1e-i	[0g
.	.	.	2c\	.	.
.	.	.	2B-\	2d\	.
.	.	.	[2c\	[2e-i\	.
=6	=6	=6.	=6	=6	=6
0r	0r	0r	2c\]	2e-\]	0g]
.	.	.	4B-\	4d\	.
.	.	.	4A/	4c\	.
.	.	.	1G	1B-	.
=7	=7	=7	=7	=7	=7
0r	0A	0r	1F	[0c	2.a/
.	.	.	.	.	4b-\
.	.	.	2r	.	2cc\
.	.	.	[2F/	.	[2a/
=8	=8	=8.	=8	=8	=8
0r	0A	0r	2F/]	0c]	2a/]
.	.	.	2G/	.	4g/
.	.	.	.	.	4f/
.	.	.	1A	.	1e
=9	=9	=9.	=9	=9	=9
0D	1B-	0r	1D	2.d\	[0d
.	.	.	.	4e\	.
.	2A\	.	1r	2f\	.
.	[2B-\	.	.	[2d\	.
=10	=10	=10	=10	=10	=10
0D	2B-\]	0r	0r	2d\]	0d]
.	4A\	.	.	4c\	.
.	4G\	.	.	4B-\	.
.	1F	.	.	1A	.
=11	=11	=11.	=11	=11	=11
1E-i	2G\	0r	0r	[0G	0r
.	2C/	.	.	.	.
2D\	2BB-/	.	.	.	.
[2E-i\	[2C/	.	.	.	.
=12	=12	=12.	=12	=12	=12
2E-\]	2C/]	0r	1r	0G]	0r
4D\	4BB-/	.	.	.	.
4C/	4AA/	.	.	.	.
1BB-	1GG	.	1d	.	.
=13	=13	=13	=13	=13	=13
1C	[0G	0r	1e-i	0r	0r
2BB-/	.	.	2d\	.	.
[2C/	.	.	[2e-i\	.	.
=14	=14	=14.	=14	=14	=14
2C/]	1G]	0r	2e-\]	1r	0r
4BB-/	.	.	4d\	.	.
4AA/	.	.	4c\	.	.
1GG	1G	.	1B-	1d	.
=15	=15	=15.	=15	=15	=15
1C	1G	0r	1c	0e-i	1r
1C	1G	.	1c	.	1g
=16	=16	=16	=16	=16	=16
1C	0G	0r	1c	0e-i	1g
1C	.	.	1c	.	1g
=17	=17	=17.	=17	=17	=17
0D	1r	0r	1A	0d	1.f
.	1D	.	1A	.	.
.	.	.	.	.	2g/
=18	=18	=18.	=18	=18	=18
0r	1F	0r	1A	1c	2.a/
.	.	.	.	.	4b-\
.	1F	.	1F	1A	2cc\
.	.	.	.	.	[2a/
=19	=19	=19	=19	=19	=19
0r	0G	0r	0B-	1d	2a/]
.	.	.	.	.	4g/
.	.	.	.	.	4f/
.	.	.	.	2d\	1g
.	.	.	.	2e\	.
=20	=20	=20.	=20	=20	=20
1r	0D	0r	[0A	1.f	0a
1D	.	.	.	.	.
.	.	.	.	[2d\	.
=21	=21	=21.	=21	=21	=21
1D	1.F	0r	1A]	2d\]	0r
.	.	.	.	1f	.
1BB-	.	.	1B-	.	.
.	[2G\	.	.	4e-i\	.
.	.	.	.	4d\	.
=22	=22	=22	=22	=22	=22
0E-i	4G\]	0r	0G	2e-i\	0r
.	4A\	.	.	.	.
.	1B-	.	.	1d	.
.	4A\	.	.	2c\	.
.	4G\	.	.	.	.
=23	=23	=23.	=23	=23	=23
[0D	[0F	0r	0A	0d	1r
.	.	.	.	.	1a
=24	=24	=24.	=24	=24	=24
0D]	0F]	0r	1r	0r	1a
.	.	.	1d	.	1a
=25	=25	=25	=25	=25	=25
0r	0r	0r	1d	0r	1b-
.	.	.	1d	.	1a
=26	=26	=26.	=26	=26	=26
0r	0r	0r	1e	0r	1cc
.	.	.	1d	.	1b-
=27	=27	=27.	=27	=27	=27
0r	0r	0r	1f	0r	1a
.	.	.	1e	.	2.g/
.	.	.	.	.	4a/
=28	=28	=28	=28	=28	=28
0r	0r	0r	2d\	1d	2b-\
.	.	.	2.f\	.	2.a/
.	.	.	.	1d	.
.	.	.	4e\	.	4g/
.	.	.	4d\	.	4f/
.	.	.	4c\	.	4e/
=29	=29	=29.	=29	=29	=29
0r	0r	0r	2B-\	1d	2d/
.	.	.	2G/	.	1dd
.	.	.	1r	1e	.
.	.	.	.	.	2cc\
=30	=30	=30.	=30	=30	=30
0r	0r	0r	1r	1d	2b-\
.	.	.	.	.	1a
.	.	.	2r	2.f\	.
.	.	.	2F/	.	2cc\
.	.	.	.	4e\	.
=31	=31	=31	=31	=31	=31
0r	1r	0r	2G/	2d\	2b-\
.	.	.	2A/	2.c\	1a
.	1A	.	2F/	.	.
.	.	.	.	4A/	.
.	.	.	4E/	[2d\	4g/
.	.	.	4D/	.	4f/
=32	=32	=32.	=32	=32	=32
1r	1A	0r	1A	2d\]	1e
.	.	.	.	2c#i\	.
1D	1A	.	2F/	[1d	[1d
.	.	.	[2A/	.	.
=33	=33	=33.	=33	=33	=33
1D	1B-	0r	4A/]	0d]	1d]
.	.	.	4G/	.	.
.	.	.	1G	.	.
1D	1A	.	.	.	1r
.	.	.	2F/	.	.
=34	=34	=34	=34	=34	=34
1E	1c	0r	2.G/	0r	0r
.	.	.	4A/	.	.
1D	1B-	.	4B-\	.	.
.	.	.	4c\	.	.
.	.	.	[2d\	.	.
=35	=35	=35.	=35	=35	=35
1F	1A	0r	2d\]	0r	0r
.	.	.	2.c\	.	.
1E	2r	.	.	.	.
.	.	.	4B-\	.	.
.	[2G\	.	2G/	.	.
=36	=36	=36.	=36	=36	=36
1D	2G\]	0r	1A	0r	0r
.	2F\	.	.	.	.
2C/	2E\	.	2c\	.	.
[2D\	[2F\	.	[2B-\	.	.
=37	=37	=37	=37	=37	=37
2D\]	4F\]	0r	4B-\]	0r	0r
.	4E\	.	4A/	.	.
4C/	1D	.	1G	.	.
4BB-/	.	.	.	.	.
1AA	.	.	.	.	.
.	2C/	.	2F#i/	.	.
=38	=38	=38.	=38	=38	=38
0GG	1D	0r	0G	0d	0r
.	1D	.	.	.	.
=39	=39	=39.	=39	=39	=39
1r	1E-i	0r	1r	1c	0g
1GG	1D	.	1G	1B-	.
=40	=40	=40	=40	=40	=40
1C	0E-i	0r	1G	0c	1g
1C	.	.	1G	.	1g
=41	=41	=41.	=41	=41	=41
0GG	0D	0r	0G	0d	0b-
=42	=42	=42.	=42	=42	=42
0D	1r	0r	1F	1r	1a
.	1F	.	1F	1d	1a
=43	=43	=43	=43	=43	=43
1r	1C	0r	2.G/	1e-i	1g
.	.	.	4A/	.	.
1D	1D	.	2B-\	1d	1f
.	.	.	[2A/	.	.
=44	=44	=44.	=44	=44	=44
1E-i	1G	0r	2A/]	1B-	0g
.	.	.	4G/	.	.
.	.	.	4F/	.	.
1E-i	1C	.	1G	1c	.
=45	=45	=45.	=45	=45	=45
0D	1F	0r	1A	1d	1f
.	1F	.	1A	1d	1f
=46	=46	=46	=46	=46	=46
1GG	1D	0r	1B-	1d	1g
1D	1F	.	1A	1d	1f
=47	=47	=47.	=47	=47	=47
1BB-	1G	0r	0B-	0d	1d
1GG	1D	.	.	.	[1g
=48	=48	=48.	=48	=48	=48
0D	0F	0r	0A	0d	2g/]
.	.	.	.	.	4f#i/
.	.	.	.	.	4e/
.	.	.	.	.	1f#i
=49	=49	=49	=49	=49	=49
0GG	0D	[0G	1r	1r	1g
.	.	.	[1B-	[1d	[1g
=50	=50	=50.	=50	=50	=50
1r	0GG	0G_	1B-]	1d]	1g]
[1GG	.	.	1B-	1d	1g
=51	=51	=51.	=51	=51	=51
1GG]	0G	0G]	1d	1d	1b-
1GG	.	.	1d	1B-	1b-
=52	=52	=52	=52	=52	=52
1D	1.F	[0A	1d	1.f	1a
1D	.	.	1d	.	1a
.	2F\	.	.	[2d\	.
=53	=53	=53.	=53	=53	=53
1D	1D	0A_	1A	4d\]	1f
.	.	.	.	4e\	.
.	.	.	.	1f	.
1D	1F	.	1d	.	1d
.	.	.	.	4e\	.
.	.	.	.	4d\	.
=54	=54	=54.	=54	=54	=54
0AA	1.E	0A]	1c	2e\	2.a/
.	.	.	.	2A/	.
.	.	.	.	.	4b-\
.	.	.	2r	2r	2cc\
.	2C/	.	[2c\	2A/	[2a/
=55	=55	=55	=55	=55	=55
1r	1F	[0c	2c\]	2F/	2a/]
.	.	.	4B-\	2.c\	4g/
.	.	.	4A/	.	4f/
2r	1C	.	1G	.	1e
.	.	.	.	4B-\	.
2C/	.	.	.	2G/	.
=56	=56	=56.	=56	=56	=56
2AA/	2r	0c_	1F	1A	2r
2FF/	2F\	.	.	.	2a/
1C	2E\	.	2r	2r	2g/
.	2C/	.	2c\	2G/	2e/
=57	=57	=57.	=57	=57	=57
1r	1F	0c]	2A/	2A/	1a
.	.	.	2F/	2.c\	.
2r	[1C	.	2G/	.	1g
.	.	.	.	4B-\	.
2C/	.	.	2E/	2G/	.
=58	=58	=58	=58	=58	=58
2AA/	2C/]	[0c	1A	1r	1r
2FF/	1F	.	.	.	.
1C	.	.	1G	1c	1g
.	2E\	.	.	.	.
=59	=59	=59.	=59	=59	=59
1.FF	[0F	0c_	2r	2A/	1.a
.	.	.	2.c\	2F/	.
.	.	.	.	2.A/	.
.	.	.	4B-\	.	.
[2F\	.	.	[2A/	.	2f/
.	.	.	.	4B-\	.
=60	=60	=60.	=60	=60	=60
2F\]	1F]	0c]	2A/]	2c\	2a/
4E\	.	.	4G/	2F/	2b-\
4D\	.	.	4F/	.	.
1C	1r	.	1E	2G/	1cc
.	.	.	.	2A/	.
=61	=61	=61	=61	=61	=61
1BB-	2r	[0d	2D/	2.B-\	1f
.	2D\	.	2F/	.	.
.	.	.	.	4A/	.
1r	2GG/	.	2G/	2G/	1r
.	2D\	.	2A/	2F/	.
=62	=62	=62.	=62	=62	=62
2r	2BB-/	0d_	2.B-\	2D/	1r
2D\	2GG/	.	.	2G/	.
.	.	.	4A/	.	.
2GG/	1D	.	2G/	2r	2r
2D\	.	.	2F/	2A/	2a/
=63	=63	=63.	=63	=63	=63
2BB-/	2r	0d]	2D/	2.d\	2.b-\
2GG/	2D\	.	2G/	.	.
.	.	.	.	4c\	4a/
1D	2GG/	.	2r	2B-\	2g/
.	2D\	.	2A/	2A/	2f/
=64	=64	=64	=64	=64	=64
2r	2BB-/	[0d	2.B-\	1G	2d/
2D\	2GG/	.	.	.	2g/
.	.	.	4A/	.	.
2GG/	1D	.	2G/	2r	2r
2D\	.	.	2F/	2D/	2a/
=65	=65	=65.	=65	=65	=65
2BB-/	2r	0d_	1D	2G/	2b-\
2GG/	1G	.	.	2B-\	2.dd\
1D	.	.	2r	1A	.
.	.	.	.	.	4cc\
.	2F\	.	2A/	.	2a/
=66	=66	=66.	=66	=66	=66
2r	1G	0d]	2B-\	1r	2g/
1G	.	.	2.d\	.	2.b-\
.	1D	.	.	[1d	.
.	.	.	4c\	.	4a/
2F\	.	.	2A/	.	[2a/
=67	=67	=67	=67	=67	=67
1G	2r	0r	1B-	1d]	2a/]
.	2GG/	.	.	.	2g/
2r	1D	.	1A	1d	1a
2D\	.	.	.	.	.
=68	=68	=68.	=68	=68	=68
2D\	1F	0r	1r	2.A/	1f
2D\	.	.	.	.	.
.	.	.	.	4B-\	.
1C	1E	.	1G	2c\	1g
.	.	.	.	2G/	.
=69	=69	=69.	=69	=69	=69
1GG	1D	0r	1G	2.d\	1b-
.	.	.	.	4e\	.
1D	1r	.	1F	2f\	2a/
.	.	.	.	[2d\	[2b-\
=70	=70	=70	=70	=70	=70
1E-i	1C	0r	1G	2d\]	2b-\]
.	.	.	.	2c\	4a/
.	.	.	.	.	4g/
1D	2.F\	.	1A	[1d	[1f
.	4G\	.	.	.	.
=71	=71	=71.	=71	=71	=71
1D	2A\	0r	1A	0d]	1f]
.	2D\	.	.	.	.
2GG/	2G\	.	1B-	.	1r
[2D\	[2F\	.	.	.	.
=72	=72	=72.	=72	=72	=72
2D\]	2F\]	0r	2A/	1r	0r
2C/	2E\	.	1A	.	.
1BB-	1D	.	.	1d	.
.	.	.	2G/	.	.
=73	=73	=73	=73	=73	=73
0AA	0E	[0c	0A	2c\	1r
.	.	.	.	2.A/	.
.	.	.	.	.	1cc
.	.	.	.	4B-\	.
.	.	.	.	4c\	.
.	.	.	.	4d\	.
=74	=74	=74.	=74	=74	=74
0r	1r	0c_	1A	1e	1cc
.	1F	.	1r	2A/	1cc
.	.	.	.	[2c\	.
=75	=75	=75.	=75	=75	=75
0r	1F	0c]	1A	2c\]	1.a
.	.	.	.	2c\	.
.	1F	.	2A/	2c\	.
.	.	.	2A/	[2A/	2f/
=76	=76	=76	=76	=76	=76
1r	1.D	[0d	1A	2A/]	2.f/
.	.	.	.	2F/	.
.	.	.	.	.	4d/
1GG	.	.	2.G/	2B-\	2d/
.	2BB-/	.	.	[2G/	[2g/
.	.	.	4A/	.	.
=77	=77	=77.	=77	=77	=77
1GG	2.BB-/	0d]	4B-\	4G/]	2g/]
.	.	.	4c\	4A/	.
.	.	.	2d\	4B-\	2g/
.	4GG/	.	.	4c\	.
1GG	2GG/	.	2G/	2d\	1g
.	[2G\	.	2d\	2B-\	.
=78	=78	=78.	=78	=78	=78
1C	2G\]	0e	2r	1.c	2g/
.	2G\	.	1G	.	2r
1C	1E	.	.	.	1g
.	.	.	2G/	2c\	.
=79	=79	=79	=79	=79	=79
1FF	1F	0c	1c	2A/	1a
.	.	.	.	2A/	.
1FF	1r	.	2A/	1F	1a
.	.	.	2A/	.	.
=80	=80	=80.	=80	=80	=80
1BB-	2r	[0d	2B-\	2r	1f
.	2D\	.	4A/	2B-\	.
.	.	.	4G/	.	.
2r	2.D\	.	2F/	2A/	2r
2GG/	.	.	2G/	[2d\	2b-\
.	4E\	.	.	.	.
=81	=81	=81.	=81	=81	=81
2D\	2F\	1d]	1D	2d\]	2a/
2GG/	1G	.	.	4c\	2g/
.	.	.	.	4B-\	.
2.D\	.	1d	2r	2A/	2f/
.	2GG/	.	2B-\	2G/	2g/
4E\	.	.	.	.	.
=82	=82	=82	=82	=82	=82
2F\	2D\	[0d	2A/	1r	2.d/
2G\	2GG/	.	2G/	.	.
.	.	.	.	.	4e/
2r	2.D\	.	2F/	2r	2f/
2GG/	.	.	2G/	2B-\	2B-/
.	4E\	.	.	.	.
=83	=83	=83.	=83	=83	=83
2D\	2F\	0d_	2r	2A/	0r
2GG/	2G\	.	2B-\	2G/	.
2.D\	2r	.	2A/	2F/	.
.	2GG/	.	[2d\	2G/	.
4E\	.	.	.	.	.
=84	=84	=84.	=84	=84	=84
2F\	2D\	0d]	2d\]	2.D/	0r
2G\	2GG/	.	4c\	.	.
.	.	.	4B-\	4E/	.
2r	2.D\	.	2A/	2F/	.
2GG/	.	.	2G/	2G/	.
.	4E\	.	.	.	.
=85	=85	=85	=85	=85	=85
2D\	2F\	0r	1r	1r	1.b-
2.GG/	2G\	.	.	.	.
.	2GG/	.	2r	1d	.
4AA/	.	.	.	.	.
4BB-/	2G\	.	[2B-\	.	2b-\
4C/	.	.	.	.	.
=86	=86	=86.	=86	=86	=86
2D\	2F\	0r	2B-\]	2.d\	1b-
2GG/	2G\	.	4A/	.	.
.	.	.	4G/	4e\	.
1r	[1D	.	1d	4f\	1a
.	.	.	.	4e\	.
.	.	.	.	[2f\	.
=87	=87	=87.	=87	=87	=87
0r	1D]	0r	2D/	4f\]	2.f/
.	.	.	.	4F/	.
.	.	.	2d\	2f\	.
.	.	.	.	.	4g/
.	1r	.	2c\	2e\	4a/
.	.	.	.	.	4g/
.	.	.	2A/	[2f\	[2a/
=88	=88	=88	=88	=88	=88
0r	0r	0r	1d	4f\]	2a/]
.	.	.	.	4e\	.
.	.	.	.	1d	4g/
.	.	.	.	.	4f/
.	.	.	1A	.	1e
.	.	.	.	2c#i\	.
=89	=89	=89.	=89	=89	=89
2r	0B-	0r	1r	1d	0d
2.GG/	.	.	.	.	.
.	.	.	2r	2.D/	.
4AA/	.	.	.	.	.
4BB-/	.	.	2d\	.	.
4C/	.	.	.	4E/	.
=90	=90	=90.	=90	=90	=90
2D\	1B-	0r	2.d\	2F/	0r
2GG/	.	.	.	2G/	.
.	.	.	4e\	.	.
1D	1A	.	4f\	1r	.
.	.	.	4e\	.	.
.	.	.	[2f\	.	.
=91	=91	=91	=91	=91	=91
2r	2.F\	[0A	4f\]	2F/	0r
.	.	.	4F/	.	.
2D\	.	.	2f\	2G/	.
.	4G\	.	.	.	.
2C/	4A\	.	2e\	1r	.
.	4G\	.	.	.	.
2AA/	[2A\	.	[2f\	.	.
=92	=92	=92.	=92	=92	=92
1D	2A\]	0A_	4f\]	0r	1r
.	.	.	4e\	.	.
.	4G\	.	1d	.	.
.	4F\	.	.	.	.
1AA	1E	.	.	.	2r
.	.	.	2c#i\	.	2a/
=93	=93	=93.	=93	=93	=93
1D	1D	0A]	1d	2r	2.f/
.	.	.	.	2d\	.
.	.	.	.	.	4g/
2r	1F	.	1r	2c\	4a/
.	.	.	.	.	4b-\
2D\	.	.	.	2A/	[2a/
=94	=94	=94	=94	=94	=94
2BB-/	1G	[0d	0r	1B-	4a/]
.	.	.	.	.	4g/
2GG/	.	.	.	.	1g
1D	2r	.	.	2A/	.
.	2D\	.	.	2A/	2f#i/
=95	=95	=95.	=95	=95	=95
0GG	2D\	0d]	2r	1G	0g
.	2D\	.	2B-\	.	.
.	1G	.	2B-\	[1G	.
.	.	.	2B-\	.	.
=96	=96	=96.	=96	=96	=96
1.C	1.E	[0c	2G/	2G/]	1r
.	.	.	2.c\	2G/	.
.	.	.	.	1G	[1g
.	.	.	4d\	.	.
2C/	2E\	.	4e\	.	.
.	.	.	4f\	.	.
=97	=97	=97	=97	=97	=97
1C	1E	1c]	2g\	1G	2g/]
.	.	.	2c\	.	2g/
1GG	[1D	1B-	2r	2r	1g
.	.	.	[2d\	2G/	.
=98	=98	=98.	=98	=98	=98
2r	1D]	0A	2d\]	2F/	2a/
2D\	.	.	2A/	2D/	4f/
.	.	.	.	.	4g/
2C/	2r	.	1c	1E	4a/
.	.	.	.	.	4b-\
2AA/	2C/	.	.	.	[2cc\
=99	=99	=99.	=99	=99	=99
2.C/	2.E\	0G	1G	2r	2cc\]
.	.	.	.	2c\	2g/
4BB-/	4F\	.	.	.	.
1GG	2G\	.	[1d	2B-\	1b-
.	[2D\	.	.	[2d\	.
=100	=100	=100	=100	=100	=100
1D	4D\]	[0A	1d]	4d\]	2a/
.	4E\	.	.	4c\	.
.	4F\	.	.	2A/	1f
.	4G\	.	.	.	.
2r	1A	.	1D	2r	.
2D\	.	.	.	2f\	4e/
.	.	.	.	.	4d/
=101	=101	=101.	=101	=101	=101
2C/	1r	0A_	0r	2e\	2e/
1D	.	.	.	1f	2d/
.	2r	.	.	.	1a
4C/	2D\	.	.	4e\	.
4BB-/	.	.	.	4d\	.
=102	=102	=102.	=102	=102	=102
1AA	2E\	0A]	0r	2c\	2r
.	2C/	.	.	2.e\	2a/
1r	2D\	.	.	.	2f/
.	.	.	.	4d\	.
.	2F\	.	.	[2d\	2d/
=103	=103	=103	=103	=103	=103
1r	1E	[0G	1r	2d\]	2.g/
.	.	.	.	2c\	.
.	.	.	.	.	4a/
1GG	1D	.	2r	1d	2b-\
.	.	.	2d\	.	[2g/
=104	=104	=104.	=104	=104	=104
1C	1r	0G_	2e\	1G	2g/]
.	.	.	2c\	.	4f/
.	.	.	.	.	4e/
2BB-/	2r	.	2d\	1r	2d/
[2C/	2G\	.	2G/	.	2c/
=105	=105	=105.	=105	=105	=105
2C/]	2E\	0G]	1c	0r	1g
4BB-/	2C/	.	.	.	.
4AA/	.	.	.	.	.
1GG	1D	.	2B-\	.	2r
.	.	.	[2G/	.	2g/
=106	=106	=106	=106	=106	=106
0r	2GG/	0r	4G/]	1d	2.b-\
.	.	.	4A/	.	.
.	2G\	.	4B-\	.	.
.	.	.	4c\	.	4a/
.	2.B-\	.	2d\	2d\	2g/
.	.	.	2D/	2d\	2f/
.	4A\	.	.	.	.
=107	=107	=107.	=107	=107	=107
0r	2G\	0r	2r	1.d	2g/
.	2F\	.	2A/	.	2a/
.	2G\	.	2B-\	.	1d
.	[2D\	.	2A/	[2f\	.
=108	=108	=108.	=108	=108	=108
0r	2D\]	0r	2F/	2f\]	0r
.	1G	.	1B-	4e\	.
.	.	.	.	4d\	.
.	.	.	.	2e\	.
.	2F\	.	[2A/	[2d\	.
=109	=109	=109	=109	=109	=109
0r	1E	0r	2A/]	2d\]	1r
.	.	.	2G/	2c#i\	.
.	[1D	.	1A	1d	1a
=110	=110	=110.	=110	=110	=110
0r	1D]	0r	0r	2.f\	2a/
.	.	.	.	.	2a/
.	.	.	.	4e\	.
.	1r	.	.	2d\	[1a
.	.	.	.	2c\	.
=111	=111	=111.	=111	=111	=111
0r	0r	0r	0r	2d\	2a/]
.	.	.	.	1A	1cc
.	.	.	.	[2d\	4b-\
.	.	.	.	.	4a/
=112	=112	=112	=112	=112	=112
0r	0r	0r	0r	2d\]	2b-\
.	.	.	.	2c\	1a
.	.	.	.	1B-	.
.	.	.	.	.	2g/
=113	=113	=113.	=113	=113	=113
1r	2r	0r	1r	1A	1a
.	2D\	.	.	.	.
2r	2.F\	.	1A	1r	1r
2D\	.	.	.	.	.
.	4E\	.	.	.	.
=114	=114	=114.	=114	=114	=114
2.F\	2D\	0r	2A/	2r	1a
.	2C/	.	2A/	2c\	.
4E\	.	.	.	.	.
2D\	2D\	.	[1A	2A/	2a/
2C/	2AA/	.	.	2c\	2a/
=115	=115	=115	=115	=115	=115
2D\	1A	[0F	2A/]	2r	1a
2AA/	.	.	1c	2A/	.
2r	1r	.	.	2F/	1a
[2D\	.	.	4B-\	2A/	.
.	.	.	4A/	.	.
=116	=116	=116.	=116	=116	=116
2D\]	1r	1F]	2B-\	2D/	1f
2C/	.	.	2A/	2A/	.
1BB-	1D	1G	2r	2B-\	1r
.	.	.	[2d\	2G/	.
=117	=117	=117.	=117	=117	=117
1AA	1E	0A	2d\]	2c\	0r
.	.	.	2c#i\	1A	.
1D	1F	.	1d	.	.
.	.	.	.	[2d\	.
=118	=118	=118	=118	=118	=118
1r	0G	0B-	0r	2d\]	1d
.	.	.	.	2G/	.
1GG	.	.	.	1d	1g
=119	=119	=119.	=119	=119	=119
1C	1E	0c	1G	1e	2g/
.	.	.	.	.	1e
1AA	1E	.	1A	1c	.
.	.	.	.	.	[2a/
=120	=120	=120.	=120	=120	=120
1D	0F	0A	1A	0d	2a/]
.	.	.	.	.	1f
1D	.	.	1D	.	.
.	.	.	.	.	[2d/
=121	=121	=121	=121	=121	=121
2.GG/	1G	[0B-	1G	1d	2d/]
.	.	.	.	.	2.g/
4AA/	.	.	.	.	.
2BB-/	1r	.	2.G/	2r	.
.	.	.	.	.	4a/
2GG/	.	.	.	[2G/	2b-\
.	.	.	4A/	.	.
=122	=122	=122.	=122	=122	=122
1G	2.GG/	0B-_	2B-\	4G/]	2g/
.	.	.	.	4A/	.
.	.	.	2G/	2B-\	2dd\
.	4AA/	.	.	.	.
1r	2BB-/	.	[1d	2G/	2r
.	2GG/	.	.	[2d\	[2g/
=123	=123	=123.	=123	=123	=123
2.GG/	0G	0B-]	1d]	2d\]	4g/]
.	.	.	.	.	4a/
.	.	.	.	2d\	2b-\
4AA/	.	.	.	.	.
2BB-/	.	.	2r	2.d\	2g/
2GG/	.	.	2G/	.	[2dd\
.	.	.	.	4e\	.
=124	=124	=124	=124	=124	=124
0D	1F	[0Al	2A/	4f\	2dd\]
.	.	.	.	4d\	.
.	.	.	1D	2f\	2dd\
.	2r	.	.	2.F/	1a
.	2D\	.	2d\	.	.
.	.	.	.	4G/	.
=125	=125	=125.	=125	=125	=125
1AA	2E\	0A_	2c\	4A/	2r
.	.	.	.	4B-\	.
.	2C/	.	2A/	2c\	1a
1r	1D	.	1d	2F/	.
.	.	.	.	2f\	2f/
=126	=126	=126.	=126	=126	=126
1AA	1E	0A_	1c	2e\	1cc
.	.	.	.	2c\	.
1D	2r	.	2r	2d\	1a
.	2D\	.	2F/	[2f\	.
=127	=127	=127	=127	=127	=127
1AA	2E\	0A_	2.c\	4f\]	[0al
.	.	.	.	4e\	.
.	2C/	.	.	1e	.
.	.	.	4B-\	.	.
1r	1F	.	2A/	.	.
.	.	.	2F/	2d\	.
=128	=128	=128.	=128	=128	=128
0AAl	0El	0A]	0cl	0el	0a]
!!LO:LB:i:g=z
=129||	=129||	=129||	=129||	=129||	=129||
*>B	*>B	*>B	*>B	*>B	*>B
*clefF4	*clefF4	*clefGv2	*clefGv2	*clefGv2	*clefG2
*k[b-]	*k[b-]	*k[b-]	*k[b-]	*k[b-]	*k[b-]
*M2/1	*M2/1	*M2/1	*M2/1	*M2/1	*M2/1
*met(C|)	*met(C|)	*met(C|)	*met(C|)	*met(C|)	*met(C|)
!!!OMD: Secunda pars: Tibi domina gloriosa
!!section: Secunda pars: Tibi domina gloriosa
0r	0r	0r	0r	0A	0r
=130	=130	=130	=130	=130	=130
0r	0r	0r	0r	1c	0r
.	.	.	.	[1d	.
=131	=131	=131	=131	=131	=131
0r	0D	0r	0r	2d\]	0r
.	.	.	.	2d\	.
.	.	.	.	2d\	.
.	.	.	.	[2f\	.
=132	=132	=132	=132	=132	=132
0r	1F	0r	0r	2f\]	0r
.	.	.	.	4e\	.
.	.	.	.	4d\	.
.	[1G	.	.	2e\	.
.	.	.	.	[2d\	.
=133	=133	=133	=133	=133	=133
0r	2G\]	0r	0r	4d\]	1r
.	.	.	.	4c\	.
.	2G\	.	.	4B-\	.
.	.	.	.	4A/	.
.	2G\	.	.	2B-\	[1d
.	[2B-\	.	.	2G/	.
=134	=134	=134	=134	=134	=134
0r	2B-\]	0r	0r	2r	1d]
.	4A\	.	.	1d	.
.	4G\	.	.	.	.
.	1A	.	.	.	1f
.	.	.	.	[2c\	.
=135	=135	=135	=135	=135	=135
0r	1G	0r	1r	2c\]	1.g
.	.	.	.	2B-\	.
.	1C	.	[1G	2c\	.
.	.	.	.	[2G/	2g/
=136	=136	=136	=136	=136	=136
0r	1r	0r	1G]	4G/]	2g/
.	.	.	.	4A/	.
.	.	.	.	4B-\	1b-
.	.	.	.	4c\	.
.	1G	.	1B-	4d\	.
.	.	.	.	4e\	.
.	.	.	.	4f\	4a/
.	.	.	.	4e\	4g/
=137	=137	=137	=137	=137	=137
0r	1F	0r	1.c	2f\	1a
.	.	.	.	2F/	.
.	2E\	.	.	2G/	2g/
.	[2A\	.	2c\	[2F/	[2cc\
=138	=138	=138	=138	=138	=138
0AA	2A\]	0r	1c	2F/]	4cc\]
.	.	.	.	.	4b-\
.	4G\	.	.	4E/	1a
.	4F\	.	.	4D/	.
.	1E	.	1c	1A	.
.	.	.	.	.	4g/
.	.	.	.	.	4f/
=139	=139	=139	=139	=139	=139
1C	0r	0r	1c	0A	1e
[1D	.	.	2A/	.	1d
.	.	.	[2d\	.	.
=140	=140	=140	=140	=140	=140
2D\]	0F	0r	4d\]	1A	0r
.	.	.	4e\	.	.
2D\	.	.	1f	.	.
[1F	.	.	.	[1A	.
.	.	.	4e\	.	.
.	.	.	4d\	.	.
=141	=141	=141	=141	=141	=141
2F\]	1F	0r	2c\	2A/]	0r
4E\	.	.	1d	1B-	.
4D\	.	.	.	.	.
1E	1G	.	.	.	.
.	.	.	2c#i\	4A/	.
.	.	.	.	4G/	.
=142	=142	=142	=142	=142	=142
1.D	1A	0r	[0d	1F	1r
.	1F	.	.	1r	1a
2D\	.	.	.	.	.
=143	=143	=143	=143	=143	=143
1GG	1G	0r	0d_	0r	1b-
1D	1F	.	.	.	1a
=144	=144	=144	=144	=144	=144
1r	0D	0r	0d_	1A	1f
1GG	.	.	.	1B-	1g
=145	=145	=145	=145	=145	=145
1D	0r	0r	0d]	1A	0a
1D	.	.	.	2F/	.
.	.	.	.	[2A/	.
=146	=146	=146	=146	=146	=146
1E-i	1r	0r	0r	2A/]	0r
.	.	.	.	2G/	.
1D	1A	.	.	2F/	.
.	.	.	.	[2D/	.
=147	=147	=147	=147	=147	=147
1BB-	1B-	0r	1d	2D/]	0r
.	.	.	.	2d\	.
1C	2A\	.	1e-i	2.c\	.
.	[2G\	.	.	.	.
.	.	.	.	4B-\	.
=148	=148	=148	=148	=148	=148
1D	2G\]	0r	1d	4A/	1a
.	.	.	.	4G/	.
.	2F\	.	.	2A/	.
1GG	2G\	.	1B-	1G	1b-
.	2D\	.	.	.	.
=149	=149	=149	=149	=149	=149
1C	1E	0r	1c	1r	2a/
.	.	.	.	.	1g
1r	1D	.	[1d	1A	.
.	.	.	.	.	2f/
=150	=150	=150	=150	=150	=150
2r	0r	0r	1d]	1B-	2.g/
1G	.	.	.	.	.
.	.	.	.	.	4f/
.	.	.	2r	1A	2d/
2F\	.	.	2A/	.	2f/
=151	=151	=151	=151	=151	=151
2G\	0r	0r	2B-\	2G/	2e/
2D\	.	.	2.A/	2F/	1d
1E	.	.	.	1G	.
.	.	.	4G/	.	.
.	.	.	[2G/	.	2c#i/
=152	=152	=152	=152	=152	=152
1D	1r	0r	2G/]	1A	0d
.	.	.	4F/	.	.
.	.	.	4E/	.	.
[1D	[1A	.	[1F	1r	.
=153	=153	=153	=153	=153	=153
2D\]	2A\]	0r	1F]	1.d	0r
2D\	2A\	.	.	.	.
1D	1A	.	1r	.	.
.	.	.	.	2d\	.
=154	=154	=154	=154	=154	=154
1G	1B-	0r	2r	1d	0r
.	.	.	1G	.	.
1C	1c	.	.	1e	.
.	.	.	2A/	.	.
=155	=155	=155	=155	=155	=155
1D	2A\	0r	2F/	1f	0r
.	2.B-\	.	2D/	.	.
2GG/	.	.	2d\	2d\	.
.	4A\	.	.	.	.
[2C/	[2G\	.	[2c\	[2e\	.
=156	=156	=156	=156	=156	=156
2C/]	2G\]	0r	4c\]	2e\]	0r
.	.	.	4B-\	.	.
2D\	2F\	.	4A/	1d	.
.	.	.	4G/	.	.
1AA	1E	.	1A	.	.
.	.	.	.	2c#i\	.
=157	=157	=157	=157	=157	=157
1.D	1D	0r	1.F	[0d	1.a
.	1r	.	.	.	.
2E\	.	.	2G/	.	2a/
=158	=158	=158	=158	=158	=158
1F	1D	0r	2A/	0d]	1a
.	.	.	1D	.	.
1G	1GG	.	.	.	1b-
.	.	.	2d\	.	.
=159	=159	=159	=159	=159	=159
1C	2r	0r	2c\	1r	1cc
.	1G	.	2.e-i\	.	.
1D	.	.	.	2r	2b-\
.	.	.	4d\	.	.
.	2F\	.	[2d\	2d\	[2a/
=160	=160	=160	=160	=160	=160
1E-i	1G	0r	2d\]	2B-\	4a/]
.	.	.	.	.	4g/
.	.	.	2c\	2c\	1g
1D	1A	.	1d	2A/	.
.	.	.	.	2F/	2f#i/
=161	=161	=161	=161	=161	=161
1.GG	1G	[0G	1.d	1.B-	1g
.	2r	.	.	.	1g
2GG/	2D\	.	2d\	2B-\	.
=162	=162	=162	=162	=162	=162
1GG	2D\	0G]	1d	2B-\	1b-
.	2D\	.	.	2G/	.
1GG	1G	.	1B-	[1d	1b-
=163	=163	=163	=163	=163	=163
0D	2.F\	[0A	1.f	2d\]	0a
.	.	.	.	4c\	.
.	4G\	.	.	4B-\	.
.	2A\	.	.	2A/	.
.	2D\	.	2F/	2F/	.
=164	=164	=164	=164	=164	=164
0r	2C/	0A]	2c\	2E/	1a
.	1D	.	2A/	1F	.
.	.	.	1d	.	1a
.	4C/	.	.	4E/	.
.	4BB-/	.	.	4D/	.
=165	=165	=165	=165	=165	=165
2r	2.AA/	[0c	1c	1A	1a
2F\	.	.	.	.	.
.	4BB-/	.	.	.	.
2E\	2C/	.	1r	1r	2g/
[2F\	2FF/	.	.	.	[2a/
=166	=166	=166	=166	=166	=166
2F\]	2r	0c]	1r	2r	2a/]
4E\	2F\	.	.	2F/	4g/
4D\	.	.	.	.	4f/
2C/	2E\	.	2r	1c	2g/
2FF/	[2F\	.	[2A/	.	2f/
=167	=167	=167	=167	=167	=167
2r	2F\]	[0c	2A/]	2.A/	0r
2F\	4E\	.	2F/	.	.
.	4D\	.	.	4B-\	.
2E\	2C/	.	2G/	4c\	.
.	.	.	.	4d\	.
[2F\	2FF/	.	[2A/	[2c\	.
=168	=168	=168	=168	=168	=168
2F\]	1F	0c]	2A/]	4c\]	0r
.	.	.	.	4B-\	.
4E\	.	.	4G/	1B-	.
4D\	.	.	4F/	.	.
1C	1r	.	1E	.	.
.	.	.	.	2A/	.
=169	=169	=169	=169	=169	=169
2.BB-/	2r	[0d	2.D/	1B-	2r
.	2G\	.	.	.	2b-\
4C/	.	.	4E/	.	.
2D\	2F\	.	2F/	1r	2a/
2GG/	[2G\	.	2D/	.	[2b-\
=170	=170	=170	=170	=170	=170
2r	4G\]	0d]	0r	1r	2b-\]
.	2F\	.	.	.	.
2G\	.	.	.	.	4a/
.	4E\	.	.	.	4g/
2F\	2D\	.	.	2r	2a/
[2G\	2GG/	.	.	[2B-\	2g/
=171	=171	=171	=171	=171	=171
2G\]	2r	[0d	0r	2B-\]	0r
4F\	2G\	.	.	2G/	.
4E\	.	.	.	.	.
2D\	2F\	.	.	2A/	.
2GG/	[2G\	.	.	[2B-\	.
=172	=172	=172	=172	=172	=172
2r	2G\]	0d]	1r	2B-\]	0r
2G\	4F\	.	.	4A/	.
.	4E\	.	.	4G/	.
2F\	2D\	.	2r	2A/	.
[2G\	2GG/	.	[2B-\	2d\	.
=173	=173	=173	=173	=173	=173
2G\]	0r	0r	2B-\]	2B-\	2r
4F\	.	.	4A/	2c\	2g/
4E\	.	.	4G/	.	.
2D\	.	.	2A/	2d\	2f/
[2E-\	.	.	2G/	2B-\	[2g/
=174	=174	=174	=174	=174	=174
2E-\]	1r	0r	2B-\	2G/	2g/]
4D\	.	.	2c\	2A/	4f/
4C/	.	.	.	.	4e/
2.BB-/	2r	.	[1d	1B-	2d/
.	2G\	.	.	.	2b-\
4C/	.	.	.	.	.
=175	=175	=175	=175	=175	=175
2D\	2F\	0r	1d]	2r	2a/
2GG/	1G	.	.	2.d\	1b-
1r	.	.	2.G/	.	.
.	.	.	.	4B-\	.
.	4F\	.	.	2c\	4a/
.	4E\	.	4A/	.	4g/
=176	=176	=176	=176	=176	=176
0r	2D\	0r	2B-\	1d	2f/
.	2F\	.	2A/	.	2.a/
.	2E-\	.	2B-\	1G	.
.	.	.	.	.	4g/
.	2C/	.	2c\	.	[2g/
=177	=177	=177	=177	=177	=177
1r	1F	[0c	1A	2r	2g/]
.	.	.	.	2c\	2f/
1C	2r	.	1G	2.e\	1g
.	2C/	.	.	.	.
.	.	.	.	4f\	.
=178	=178	=178	=178	=178	=178
1C	2.E\	0c]	1r	2g\	1g
.	.	.	.	2.c\	.
.	4F\	.	.	.	.
1C	2G\	.	1G	.	1g
.	.	.	.	4B-\	.
.	2C/	.	.	2G/	.
=179	=179	=179	=179	=179	=179
[0GG	2r	[0d	1G	2.B-\	1g
.	2G\	.	.	.	.
.	.	.	.	4c\	.
.	2D\	.	2.B-\	1d	[1g
.	[2G\	.	.	.	.
.	.	.	4c\	.	.
=180	=180	=180	=180	=180	=180
0GG]	2G\]	0d]	4d\	0G	1g]
.	.	.	4G/	.	.
.	4F\	.	1c	.	.
.	4E\	.	.	.	.
.	1D	.	.	.	1r
.	.	.	2Bni\	.	.
=181	=181	=181	=181	=181	=181
1r	0C	0e	0c	1G	2r
.	.	.	.	.	2cc\
1C	.	.	.	1G	2g/
.	.	.	.	.	[2cc\
=182	=182	=182	=182	=182	=182
1F	1r	0c	0r	1A	2cc\]
.	.	.	.	.	4b-\
.	.	.	.	.	4a/
1E	1G	.	.	1r	1g
=183	=183	=183	=183	=183	=183
1.D	2.A\	[0d	2r	0r	1f
.	.	.	2.f\	.	.
.	4G\	.	.	.	.
.	2A\	.	.	.	1r
.	.	.	4e\	.	.
[2G\	[2B-\	.	4d\	.	.
.	.	.	4c\	.	.
=184	=184	=184	=184	=184	=184
2G\]	2B-\]	1d]	2B-\	1r	1g
4F\	4A\	.	2.d\	.	.
4E\	4G\	.	.	.	.
1D	2.F\	1d	.	2r	2.a/
.	.	.	4c\	.	.
.	.	.	2A/	[2f\	.
.	4E\	.	.	.	4g/
=185	=185	=185	=185	=185	=185
2r	2F\	[0d	1D	4f\]	2a/
.	.	.	.	4e\	.
2GG/	2G\	.	.	4d\	1b-
.	.	.	.	4c\	.
2.BB-/	2D\	.	1r	2B-\	.
.	2B-\	.	.	[2d\	4a/
4C/	.	.	.	.	4g/
=186	=186	=186	=186	=186	=186
2D\	2A\	0d]	1r	4d\]	2f/
.	.	.	.	4c\	.
2.GG/	2G\	.	.	4B-\	2g/
.	.	.	.	4A/	.
.	2B-\	.	1d	2G/	2d/
4AA/	.	.	.	.	.
4BB-/	4A\	.	.	2D/	2b-\
4C/	4G\	.	.	.	.
=187	=187	=187	=187	=187	=187
2D\	2F\	0r	2.d\	0r	2a/
2GG/	1G	.	.	.	2g/
.	.	.	4c\	.	.
1r	.	.	2d\	.	2b-\
.	2A\	.	[2f\	.	4a/
.	.	.	.	.	4g/
=188	=188	=188	=188	=188	=188
0r	1B-	0r	2f\]	1d	2f/
.	.	.	4e\	.	2g/
.	.	.	4d\	.	.
.	1A	.	2.c\	2.e\	[1a
.	.	.	4B-\	4d\	.
=189	=189	=189	=189	=189	=189
1r	2r	0r	2c\	2e\	1a]
.	2D\	.	2d\	1f	.
2r	2.F\	.	2A/	.	1a
2D\	.	.	2f\	4e\	.
.	4G\	.	.	4d\	.
=190	=190	=190	=190	=190	=190
2AA/	1A	0r	2e\	2c\	1a
1D	.	.	2d\	2d\	.
.	2r	.	2f\	2.A/	1a
2F\	2D\	.	4e\	.	.
.	.	.	4d\	4B-\	.
=191	=191	=191	=191	=191	=191
2E\	2AA/	[0A	2c\	2c\	[0a
2D\	2F\	.	2d\	2.A/	.
2F\	2D\	.	2.A/	.	.
.	.	.	.	4F/	.
4E\	[2A\	.	.	2f\	.
4D\	.	.	4B-\	.	.
=192	=192	=192	=192	=192	=192
2C/	2A\]	0A]	2c\	2e\	0a]
2D\	4G\	.	2A/	1d	.
.	4F\	.	.	.	.
1AA	1E	.	2r	.	.
.	.	.	2A/	2c#i\	.
=193	=193	=193	=193	=193	=193
1r	0D	[0d	2A/	1d	1f
.	.	.	2A/	.	.
1GG	.	.	1G	1B-	1b-
=194	=194	=194	=194	=194	=194
1D	0F	0d]	1A	2r	1a
.	.	.	.	2f\	.
1BB-	.	.	1D	2d\	1b-
.	.	.	.	2d\	.
=195	=195	=195	=195	=195	=195
0C	1.E	[0c	1G	2e\	0g
.	.	.	.	2.c\	.
.	.	.	1E	.	.
.	.	.	.	4B-\	.
.	2C/	.	.	2G/	.
=196	=196	=196	=196	=196	=196
1AA	1C	1c]	1F	2c\	1a
.	.	.	.	2A/	.
1GG	1G	1B-	2G/	2d\	2.d/
.	.	.	[2d\	2G/	.
.	.	.	.	.	4e/
=197	=197	=197	=197	=197	=197
1r	2.D\	0A	2d\]	2A/	2f/
.	.	.	2.A/	2F/	2d/
.	4E\	.	.	.	.
1AA	2F\	.	.	[1c	2.a/
.	.	.	4B-\	.	.
.	[2E\	.	4c\	.	.
.	.	.	4d\	.	4g/
=198	=198	=198	=198	=198	=198
1C	2E\]	0G	4e\	2c\]	2e/
.	.	.	4f\	.	.
.	2C/	.	2.e\	2G/	2.g/
1BB-	1D	.	.	2d\	.
.	.	.	4d\	.	4f/
.	.	.	[2d\	2B-\	2d/
=199	=199	=199	=199	=199	=199
1AA	1E	[0A	2d\]	2c\	2r
.	.	.	2c#i\	2A/	2a/
2r	1D	.	1d	1r	2f/
[2D\	.	.	.	.	2d/
=200	=200	=200	=200	=200	=200
2D\]	2r	0A]	0r	1r	1e
2C/	2A\	.	.	.	.
1D	2F\	.	.	2r	1d
.	2D\	.	.	2d\	.
=201	=201	=201	=201	=201	=201
2r	1E	[0G	0r	2B-\	0r
1C	.	.	.	2c\	.
.	1D	.	.	1d	.
2BB-/	.	.	.	.	.
=202	=202	=202	=202	=202	=202
1C	0r	0G]	2r	1e-i	1g
.	.	.	1c	.	.
1GG	.	.	.	1d	2g/
.	.	.	2B-\	.	2g/
=203	=203	=203	=203	=203	=203
0r	0r	0r	2c\	0r	1g
.	.	.	2e-i\	.	.
.	.	.	1d	.	1a
=204	=204	=204	=204	=204	=204
0r	2r	0r	0G	1d	1g
.	1B-	.	.	.	.
.	.	.	.	2d\	1b-
.	4A\	.	.	2d\	.
.	4G\	.	.	.	.
=205	=205	=205	=205	=205	=205
0r	2F\	0r	0r	1d	2a/
.	2G\	.	.	.	2b-\
.	1C	.	.	1e-i	4cc\
.	.	.	.	.	4b-\
.	.	.	.	.	4a/
.	.	.	.	.	4g/
=206	=206	=206	=206	=206	=206
0r	[0D	0r	1A	1d	2f/
.	.	.	.	.	2.d/
.	.	.	2A/	1f	.
.	.	.	.	.	4e/
.	.	.	2A/	.	4f/
.	.	.	.	.	4g/
=207	=207	=207	=207	=207	=207
0r	1D]	0r	1A	2d\	4a/
.	.	.	.	.	4b-\
.	.	.	.	1f	2.a/
.	2D\	.	1B-	.	.
.	.	.	.	.	4g/
.	2D\	.	.	4e-\	[2g/
.	.	.	.	4d\	.
=208	=208	=208	=208	=208	=208
0r	1D	0r	1A	4d\	2g/]
.	.	.	.	4A/	.
.	.	.	.	1d	2f#i/
.	1E-i	.	2.G/	.	1g
.	.	.	.	2c\	.
.	.	.	4A/	.	.
=209	=209	=209	=209	=209	=209
1D	4D\	[0F	2B-\	0d	0r
.	4E-i\	.	.	.	.
.	4F\	.	2A/	.	.
.	4G\	.	.	.	.
2D\	2A\	.	2D/	.	.
2D\	2B-\	.	[2f\	.	.
=210	=210	=210	=210	=210	=210
1D	2A\	1F]	4f\]	0r	0r
.	.	.	4e\	.	.
.	1B-	.	1d	.	.
1E-i	.	1G	.	.	.
.	4A\	.	2c\	.	.
.	4G\	.	.	.	.
=211	=211	=211	=211	=211	=211
0D	1F	0A	[0d	2r	1r
.	.	.	.	1A	.
.	1D	.	.	.	1f
.	.	.	.	[2d\	.
=212	=212	=212	=212	=212	=212
1r	0G	0B-	0d]	2d\]	1d
.	.	.	.	1B-	.
1GG	.	.	.	.	[1g
.	.	.	.	2G/	.
=213	=213	=213	=213	=213	=213
0C	0E	0c	0e	1.G	1g]
.	.	.	.	.	1e
.	.	.	.	[2c\	.
=214	=214	=214	=214	=214	=214
0FF	0F	0A	0c	2c\]	0a
.	.	.	.	1A	.
.	.	.	.	2F/	.
=215	=215	=215	=215	=215	=215
1.BB-	1.D	[0B-	0d	2F/	0f
.	.	.	.	1B-	.
2C/	2E\	.	.	4A/	.
.	.	.	.	4G/	.
=216	=216	=216	=216	=216	=216
1D	1F	0B-]	1r	2F/	1.d
.	.	.	.	2D/	.
1GG	1D	.	[1d	1G	.
.	.	.	.	.	2e/
=217	=217	=217	=217	=217	=217
1r	1r	[0A	2d\]	1.D	1f
.	.	.	2e\	.	.
[1D	[1F	.	1f	.	1d
.	.	.	.	2E/	.
=218	=218	=218	=218	=218	=218
2D\]	2F\]	0A_	1d	1F	0r
2E\	2G\	.	.	.	.
1F	1A	.	1r	1D	.
=219	=219	=219	=219	=219	=219
1D	1F	0A_	1r	0r	1.f
1r	1r	.	[1D	.	.
.	.	.	.	.	2g/
=220	=220	=220	=220	=220	=220
1r	0r	0A]	2D/]	1.d	1a
.	.	.	2E/	.	.
[1D	.	.	1F	.	1f
.	.	.	.	2e\	.
=221	=221	=221	=221	=221	=221
2D\]	1.A	0r	1D	1f	0r
2E\	.	.	.	.	.
2F\	.	.	1r	1d	.
2D\	2B-\	.	.	.	.
=222	=222	=222	=222	=222	=222
2E\	1c	0r	0r	0r	0r
1C	.	.	.	.	.
.	1A	.	.	.	.
2D\	.	.	.	.	.
=223	=223	=223	=223	=223	=223
2GG/	1B-	0r	0r	0r	0r
2G\	.	.	.	.	.
2F\	2A\	.	.	.	.
[2G\	[2B-\	.	.	.	.
=224	=224	=224	=224	=224	=224
2G\]	2B-\]	0r	1.d	0r	1r
4F\	4A\	.	.	.	.
4E\	4G\	.	.	.	.
[1D	[1F	.	.	.	[1a
.	.	.	2e\	.	.
=225	=225	=225	=225	=225	=225
1D]	1F]	0r	2f\	0r	2a/]
.	.	.	2d\	.	2b-\
1r	1r	.	2e\	.	1cc
.	.	.	[2c\	.	.
=226	=226	=226	=226	=226	=226
0r	0r	0r	2c\]	0r	1a
.	.	.	1d	.	.
.	.	.	.	.	1b-
.	.	.	4c\	.	.
.	.	.	4B-\	.	.
=227	=227	=227	=227	=227	=227
0r	0r	0r	2c\	0r	2a/
.	.	.	2d\	.	1b-
.	.	.	2G/	.	.
.	.	.	[2B-\	.	4a/
.	.	.	.	.	4g/
=228	=228	=228	=228	=228	=228
1r	1.D	0r	2B-\]	0r	0f
.	.	.	4A/	.	.
.	.	.	4G/	.	.
[1D	.	.	1A	.	.
.	2E\	.	.	.	.
=229	=229	=229	=229	=229	=229
2D\]	2F\	0r	0r	1.A	0r
2E\	2G\	.	.	.	.
2F\	2A\	.	.	.	.
2D\	2F\	.	.	2B-\	.
=230	=230	=230	=230	=230	=230
2E\	2G\	0r	1r	1c	0r
2C/	2E\	.	.	.	.
1D	1F	.	2r	1A	.
.	.	.	[2d\	.	.
=231	=231	=231	=231	=231	=231
1GG	1G	0r	2d\]	1B-	0r
.	.	.	4c\	.	.
.	.	.	4B-\	.	.
1r	1r	.	2c\	2A/	.
.	.	.	2d\	[2B-\	.
=232	=232	=232	=232	=232	=232
2G\	2r	0r	1G	2B-\]	1r
4F\	2G\	.	.	4A/	.
4E\	.	.	.	4G/	.
1D	2A\	.	1r	2F/	[1a
.	2F\	.	.	[2A/	.
=233	=233	=233	=233	=233	=233
2C/	2E\	0r	1r	4A/]	2a/]
.	.	.	.	4G/	.
2BB-/	1D	.	.	1G	2b-\
1AA	.	.	1A	.	2cc\
.	2C/	.	.	2F#i/	2a/
=234	=234	=234	=234	=234	=234
1GG	2D\	0r	2.d\	1G	1b-
.	2G\	.	.	.	.
.	.	.	4e\	.	.
2r	2F\	.	2f\	1r	2a/
2GG/	2G\	.	[2d\	.	[2b-\
=235	=235	=235	=235	=235	=235
2BB-/	2D\	0r	2d\]	0d	4b-\]
.	.	.	.	.	4a/
2C/	2E\	.	4c\	.	1g
.	.	.	4B-\	.	.
1D	1F	.	1A	.	.
.	.	.	.	.	2f#i/
=236	=236	=236	=236	=236	=236
1GG	1D	0r	0G	1d	1g
1GG	1D	.	.	1d	1g
=237	=237	=237	=237	=237	=237
1GG	1.D	0G	0B-	1d	1g
1GG	.	.	.	1d	1g
.	2E\	.	.	.	.
=238	=238	=238	=238	=238	=238
1D	2F\	0A	1A	1d	1f
.	2G\	.	.	.	.
1D	1A	.	1F	2d\	1d
.	.	.	.	[2A/	.
=239	=239	=239	=239	=239	=239
0AA	2r	0c	1r	4A/]	0a
.	.	.	.	4B-\	.
.	2F\	.	.	4c\	.
.	.	.	.	4d\	.
.	2E\	.	2r	2e\	.
.	[2F\	.	[2A/	2c\	.
=240	=240	=240	=240	=240	=240
0AA	2F\]	0c	2A/]	2.A/	0a
.	4E\	.	2A/	.	.
.	4D\	.	.	4B-\	.
.	1E	.	2A/	2c\	.
.	.	.	[2A/	2A/	.
=241	=241	=241	=241	=241	=241
2r	1D	0d	2A/]	0r	2f/
2GG/	.	.	2G/	.	2b-\
2D\	1D	.	2F/	.	2a/
[2GG/	.	.	[2G/	.	[2b-\
=242	=242	=242	=242	=242	=242
2GG/]	0r	0d	2G/]	0r	2b-\]
1G	.	.	4F/	.	4a/
.	.	.	4E/	.	4g/
.	.	.	1D	.	1a
2F\	.	.	.	.	.
=243	=243	=243	=243	=243	=243
1G	2r	0r	0r	2r	[0d
.	2GG/	.	.	2B-\	.
2F\	2D\	.	.	2A/	.
[2G\	[2GG/	.	.	[2B-\	.
=244	=244	=244	=244	=244	=244
2G\]	2GG/]	0r	0r	2B-\]	0d]
4F\	1G	.	.	4A/	.
4E\	.	.	.	4G/	.
1D	.	.	.	1A	.
.	2F\	.	.	.	.
=245	=245	=245	=245	=245	=245
1C	1G	0c	1r	1e	0r
1FF	1A	.	1F	2c\	.
.	.	.	.	[2f\	.
=246	=246	=246	=246	=246	=246
1BB-	1B-	0d	1D	4f\]	1r
.	.	.	.	4e\	.
.	.	.	.	1d	.
1D	1A	.	1F	.	2r
.	.	.	.	4c\	[2a/
.	.	.	.	4B-\	.
=247	=247	=247	=247	=247	=247
1C	0r	1e	1E	2A/	2a/]
.	.	.	.	2G/	2.cc\
1AA	.	1c	1E	2r	.
.	.	.	.	.	4b-\
.	.	.	.	[2c\	[2a/
=248	=248	=248	=248	=248	=248
1BB-	1r	1.d	1D	2c\]	2a/]
.	.	.	.	4B-\	4g/
.	.	.	.	4A/	4f/
1GG	1G	.	1D	1B-	1g
.	.	2d\	.	.	.
=249	=249	=249	=249	=249	=249
1D	1D	0d	2r	1A	1a
.	.	.	1A	.	.
1D	1F	.	.	1d	1f
.	.	.	2B-\	.	.
=250	=250	=250	=250	=250	=250
1C	0E	0r	2G/	1e	1g
.	.	.	2.c\	.	.
1AA	.	.	.	1c	2.a/
.	.	.	4B-\	.	.
.	.	.	[2A/	.	.
.	.	.	.	.	4g/
=251	=251	=251	=251	=251	=251
1BB-	0D	0r	2A/]	[0d	2f/
.	.	.	4G/	.	1d
.	.	.	4F/	.	.
1GG	.	.	1G	.	.
.	.	.	.	.	[2g/
=252	=252	=252	=252	=252	=252
1D	1r	0A	1A	0d]	2g/]
.	.	.	.	.	4f#i/
.	.	.	.	.	4e/
1r	1A	.	[1D	.	1f#i
=253	=253	=253	=253	=253	=253
1GG	1.B-	0d	1D]	0r	0g
2GG/	.	.	1G	.	.
2GG/	2B-\	.	.	.	.
=254	=254	=254	=254	=254	=254
1AA	1.A	1.c	2E/	1r	0r
.	.	.	2F/	.	.
2C/	.	.	2E/	1e	.
2C/	2G\	2B-\	2G/	.	.
=255	=255	=255	=255	=255	=255
1D	1F	1A	2D/	2d\	0r
.	.	.	1d	2.f\	.
1BB-	1D	1G	.	.	.
.	.	.	.	4e\	.
.	.	.	2B-\	[2d\	.
=256	=256	=256	=256	=256	=256
1AA	1E	0A	2c\	2d\]	0a
.	.	.	2A/	2c#i\	.
1r	2D\	.	1r	1d	.
.	2F\	.	.	.	.
=257	=257	=257	=257	=257	=257
1GG	2E\	0G	2r	1r	1b-
.	1D	.	1d	.	.
2BB-/	.	.	.	1d	1g
2BB-/	[2G\	.	2B-\	.	.
=258	=258	=258	=258	=258	=258
1AA	2G\]	0r	2c\	1c	1a
.	2F\	.	2A/	.	.
2GG/	1G	.	2r	1B-	1dd
[2G\	.	.	2d\	.	.
=259	=259	=259	=259	=259	=259
2G\]	1r	0r	2e\	1A	1cc
2F\	.	.	2f\	.	.
2G\	1G	.	2d\	2r	2b-\
2GG/	.	.	[2e\	2G/	2b-\
=260	=260	=260	=260	=260	=260
1D	2F\	0r	4e\]	2A/	1a
.	.	.	4d\	.	.
.	2F\	.	1d	2F/	.
1r	1E	.	.	1G	1r
.	.	.	2c#i\	.	.
=261	=261	=261	=261	=261	=261
1r	0D	1.F	1.d	1A	1.a
1D	.	.	.	1f	.
.	.	2G/	[2B-\	.	2b-\
=262	=262	=262	=262	=262	=262
1C	1r	1A	4B-\]	1e	1cc
.	.	.	4A/	.	.
.	.	.	1A	.	.
1BB-	1D	1B-	.	1d	1dd
.	.	.	2G/	.	.
=263	=263	=263	=263	=263	=263
1AA	1E	1c	0A	2c\	2a/
.	.	.	.	2A/	2.cc\
1FF	1F	1A	.	1c	.
.	.	.	.	.	4b-\
.	.	.	.	.	[2a/
=264	=264	=264	=264	=264	=264
0GG	1D	0B-	1r	2B-\	2a/]
.	.	.	.	2G/	4g/
.	.	.	.	.	4f/
.	1G	.	2.D/	2r	1g
.	.	.	.	[2d\	.
.	.	.	4E/	.	.
=265	=265	=265	=265	=265	=265
0D	1F	[0Al	2F/	2d\]	[0al
.	.	.	4D/	2.f\	.
.	.	.	4E/	.	.
.	1D	.	4F/	.	.
.	.	.	4G/	4e\	.
.	.	.	[2A/	[2d\	.
=266	=266	=266	=266	=266	=266
0AA	0E	0A_	2A/]	2d\]	0a_
.	.	.	4G/	4c#i\	.
.	.	.	4F/	4Bni\	.
.	.	.	2E/	1c#i	.
.	.	.	[2A/	.	.
=267	=267	=267	=267	=267	=267
[0Dl	[0Dl	0A_	2A/]	[0dl	0a_
.	.	.	1F	.	.
.	.	.	4E/	.	.
.	.	.	4D/	.	.
=268	=268	=268	=268	=268	=268
0D]	0D]	0A]	0Fl	0d]	0a]
==	==	==	==	==	==
*-	*-	*-	*-	*-	*-
!!!RDF**kern: l=long note in original notation
!!!RDF**kern: i=editorial accidental
!!!ENC:	Will Watson 04/30/2011
!!!END:	2011/04/30/
!!!EED:	Jesse Rodin
!!!EEV:	2011/10/18/
!!attribution-level@Jos: 3 (tricky)
!!!ONB:	Translated from MusicXML and edited on 2011/10/18/ by Craig Sapp
!!muse2ps: u^(2) @{OTL2}^C^@{COA}?\n@{SCT}^v90,90,90,90,90,130i2I150c80Q16
